X:665
T:Dick Gossip's
R:Reel
N:Sometimes played with the parts in the opposite order
Z:id:hn-reel-52
M:C|
L:1/8
Q:1/4=200
K:D
|:F2AF GFED|FBAF GFED|~E3F GFED|~E3F GFED|
F2AF GFED|FBAF GFED|Bdef gece|[1 dfec dBAG:|[2 dfec d2ef||
|:gB~B2 gBaB|gB~B2 gfed|(3cBA eA fAeA|cdef gfef|
gB~B2 gBaB|gB~B2 gfed|cdef gece|[1 dfec d2ef:|[2 dfec dBAG|]
